Flat-ZOMG-dark/panel/signal-unread-1.svg

<svg xmlns="http://www.w3.org/2000/svg" width="24" height="24" version="1.1">
 <defs>
  <style id="current-color-scheme" type="text/css">
   .ColorScheme-Text { color:#eeeeec; } .ColorScheme-Highlight { color:#367bf0; } .ColorScheme-NeutralText { color:#ffcc44; } .ColorScheme-PositiveText { color:#3db47e; } .ColorScheme-NegativeText { color:#dd4747; }
  </style>
 </defs>
 <path style="fill:currentColor" class="ColorScheme-Text" d="m 11.974609,3.999911 -0.763671,0.039063 -0.05078,0.00586 -0.742187,0.1132812 -0.04883,0.011719 L 9.6503928,4.3553811 9.6035178,4.3690531 9.28125,4.4881922 9.6269531,5.4256922 9.9335938,5.3143641 10.597656,5.1424891 11.28125,5.0389735 12,5.0018641 l 0.71875,0.037109 0.683594,0.1035156 0.662109,0.171875 0.181641,0.066406 0.345703,-0.9394532 -0.195313,-0.072266 -0.04687,-0.013672 -0.71875,-0.1855469 -0.04883,-0.011719 -0.742187,-0.1132812 -0.05078,-0.00586 -0.763676,-0.03906 -0.02539,0.5 z m 3.583985,0.8496094 -0.435547,0.9003906 0.205078,0.099609 0.583984,0.3554687 0.544922,0.4101563 0.0059,0.00391 0.480468,0.4375 0.375,0.4121094 0.738282,-0.671875 -0.390625,-0.4296875 -0.0332,-0.033203 L 17.099609,5.8475672 17.0625,5.8182704 16.484375,5.3846766 16.445312,5.359286 15.828125,4.9823329 15.785156,4.9588954 Z M 8.3222656,4.9081141 8.2148438,4.9588954 8.171875,4.9823329 7.5546875,5.359286 7.515625,5.3846766 6.9375,5.8182704 6.900391,5.8475674 6.3671879,6.3338956 6.3339849,6.3670986 5.851563,6.8963955 l 0.7402344,0.671875 0.4648437,-0.5117188 0.4804688,-0.4375 0.00586,-0.00391 0.5449218,-0.4101563 0.5859375,-0.3574219 0.083984,-0.041016 z M 12,5.999911 a 6,6 0 0 0 -6,6 6,6 0 0 0 0.8066406,2.990234 l -0.03125,0.115235 a 3,3 0 0 1 2.1210938,2.117187 l 0.109375,-0.0293 A 6,6 0 0 0 12,17.999911 a 6,6 0 0 0 6,-6 6,6 0 0 0 -6,-6 z m 6.712891,1.671875 -0.853516,0.5214844 0.291016,0.4785156 0.302734,0.625 0.0039,0.0098 0.228516,0.628906 0.171875,0.660157 0.02734,0.183593 0.988281,-0.152343 -0.03125,-0.208985 -0.01172,-0.04883 -0.185547,-0.71875 -0.01367,-0.04687 -0.253906,-0.6874998 -0.01953,-0.044922 -0.316406,-0.65625 -0.02344,-0.042969 z M 5.2167969,7.7870204 4.9824219,8.171786 l -0.023437,0.042969 -0.3164063,0.65625 -0.019531,0.044922 -0.2539063,0.6875 -0.013672,0.04687 -0.1855469,0.71875 -0.011719,0.04883 -0.052734,0.341797 0.9882812,0.152344 0.048828,-0.314454 0.171875,-0.662109 0.2285157,-0.628906 0.00391,-0.0098 0.3027344,-0.6250002 0.2207031,-0.3652344 z m 14.7675781,3.8828126 -1,0.05078 0.01367,0.279297 -0.03711,0.71875 -0.103516,0.683594 -0.171875,0.662109 -0.144531,0.398438 0.9375,0.345703 0.152343,-0.41211 0.01367,-0.04687 0.185547,-0.71875 0.01172,-0.04883 0.113281,-0.742187 0.0059,-0.05078 L 20,12.025302 v -0.05078 z M 4.0097656,11.804599 4,11.97452 l 0.00195,0.05859 0.052734,0.798828 0.00781,0.06055 0.1464844,0.777344 0.013672,0.05273 0.2285157,0.757813 0.015625,0.04492 0.1679687,0.410156 0.9257813,-0.376953 -0.1640625,-0.402344 -0.00195,-0.0078 L 5.1835938,13.447177 5.0507812,12.736239 5,12.007723 5.00781,11.85538 Z m 14.1542964,3.501953 -0.01367,0.02344 -0.355469,0.582031 -0.410156,0.544922 -0.0039,0.0059 -0.4375,0.480468 -0.480468,0.4375 -0.0059,0.0039 -0.06445,0.05078 0.59961,0.800781 0.07031,-0.05469 0.03711,-0.0293 0.533203,-0.486328 0.0332,-0.0332 0.486328,-0.533203 0.0293,-0.03711 0.433593,-0.578125 0.02539,-0.03906 0.376953,-0.617187 0.02344,-0.04297 0.0098,-0.02148 -0.648437,-0.3125 z m -2.552734,2.671875 -0.283203,0.171875 -0.625,0.302734 -0.0098,0.0039 -0.628906,0.228516 -0.662109,0.171875 -0.408203,0.0625 0.152343,0.988281 0.435547,-0.06641 0.04883,-0.01172 0.71875,-0.185547 0.04687,-0.01367 0.6875,-0.253906 0.04492,-0.01953 0.65625,-0.316406 0.04297,-0.02344 0.302734,-0.185547 z m -6.2597655,0.425781 -0.3769531,0.925781 0.4980468,0.203125 0.042969,0.01563 0.7617188,0.230469 0.05078,0.01172 0.78125,0.148437 0.05859,0.0059 0.796875,0.05273 0.05859,0.002 0.07617,-0.0039 -0.05078,-1 -0.06054,0.0038 -0.708984,-0.04687 -0.732422,-0.138672 -0.7167969,-0.214844 z"/>
 <circle style="fill:currentColor" class="ColorScheme-Highlight" cx="6" cy="18" r="2"/>
</svg>

<svg xmlns="http://www.w3.org/2000/svg" width="24" height="24" version="1.1">
 <defs>
  <style id="current-color-scheme" type="text/css">
   .ColorScheme-Text { color:#eeeeec; } .ColorScheme-Highlight { color:#367bf0; } .ColorScheme-NeutralText { color:#ffcc44; } .ColorScheme-PositiveText { color:#3db47e; } .ColorScheme-NegativeText { color:#dd4747; }
  </style>
 </defs>
 <circle style="fill:currentColor" class="ColorScheme-Highlight" cx="6" cy="18" r="2"/>
 <path style="fill:currentColor" class="ColorScheme-Text" d="M 12 4 C 11.045 4 10.128 4.1697 9.2773 4.4805 L 9.623 5.418 C 10.366 5.1477 11.166 5 12 5 C 12.786 5 13.541 5.1335 14.248 5.375 L 14.598 4.4395 C 13.782 4.1567 12.908 4 12 4 z M 15.557 4.8438 L 15.127 5.7441 C 15.969 6.1679 16.714 6.7561 17.32 7.4668 L 18.059 6.7969 C 17.365 5.9908 16.515 5.3241 15.557 4.8438 z M 8.3223 4.9062 C 7.3729 5.4023 6.5339 6.081 5.8535 6.8984 L 6.5918 7.5684 C 7.1862 6.8448 7.9215 6.2424 8.7559 5.8027 L 8.3223 4.9062 z M 12 6 C 8.6863 6 6 8.6863 6 12 C 6.0008 13.053 6.279 14.088 6.8066 15 L 6.7793 15.104 A 3 3 0 0 1 8.8965 17.221 L 9 17.193 C 9.9118 17.721 10.946 17.999 12 18 C 15.314 18 18 15.314 18 12 C 18 8.6863 15.314 6 12 6 z M 18.713 7.668 L 17.863 8.1914 C 18.367 8.9633 18.724 9.8399 18.891 10.779 L 19.879 10.629 C 19.691 9.5544 19.287 8.5519 18.713 7.668 z M 5.2129 7.7852 C 4.656 8.676 4.2676 9.6818 4.0977 10.758 L 5.084 10.91 C 5.2331 9.9661 5.5754 9.0835 6.0645 8.3027 L 5.2129 7.7852 z M 19.992 11.662 L 18.992 11.721 C 18.996 11.813 19 11.906 19 12 C 19 12.867 18.84 13.697 18.549 14.465 L 19.484 14.814 C 19.817 13.938 20 12.989 20 12 C 20 11.887 19.997 11.774 19.992 11.662 z M 4.0039 11.803 C 4.0023 11.868 4 12.002 4 12.002 C 4.0009 13.033 4.2839 14.004 4.666 14.924 L 5.5488 14.562 C 5.2082 13.736 5.0007 12.875 5 12.002 C 5 12.002 5.0029 11.904 5.0039 11.855 L 4.0039 11.803 z M 18.152 15.33 C 17.709 16.143 17.109 16.858 16.395 17.438 L 16.992 18.236 C 17.834 17.56 18.536 16.72 19.051 15.764 L 18.152 15.33 z M 15.615 17.986 C 14.829 18.464 13.942 18.791 12.996 18.928 L 13.141 19.918 C 14.223 19.761 15.239 19.384 16.139 18.836 L 15.615 17.986 z M 9.3477 18.412 L 8.9883 19.299 C 9.9334 19.699 10.935 19.999 11.998 20 L 11.998 19 C 11.093 18.999 10.203 18.775 9.3477 18.412 z"/>
</svg>
